X:1
T:A Major Oliver Holden, 1800
T:Adapted by Jeremy Belknap, 1795, from Isaac Watts and James Merrick (Psalm 122)    86. 86. (C. M.)
T:Rising Dawn No copyright. Transcribed from Plain Psalmody, 1800.
%%score [ 1 2 3 ]
L:1/8
M:4/4
K:A
V:1 treble nm="Treble" snm="Tr."
V:2 treble-8 nm="Tenor" snm="T."
V:3 bass nm="Bass" snm="B."
V:1
 E4 | A2 A2 B2 c2 | A2 G2 F2 E2 | d2 c2 f2 e2 | d4 c4 | B2 B2 B2 e2 | G4 F4 | E6 E2 | %8
w: 1.~Be-|hold the ri- sing|dawn ap- pear, Which|calls our wil- ling|feet To|tread Thy courts, O|God, and|here Our|
 (A2 B2 c2) B2 | A4 G4 | A6"^Fair" z2 | %11
w: sol- * * emn|vows re-|peat.|
"^Zion's    gates  are     our  delight,    Within      her walls we     stand;" z8 | z8 | z8 | %14
w: |||
 z4 z2 c2 | B2 B2 d2 d2 | c2 c2 e2 e2 | (f2 e2 dB) ed | c4 B4 | A8 |] %20
w: And|all her hap- py|sons u- nite In|friend- * * * ship's *|sac- red|band.|
V:2
 c4 | c2 c2 B2 A2 | A2 B2 B2 c2 | A2 A2 B2 A2 | B4 e4 | e2 e2 e2 A2 | B4 A4 | G6 G2 | %8
w: 2.~We|love the place where|Zi- on's Lord Is|pleased to show His|face; Here|He pro- claims His|ho- ly|word, And|
 (A2 d2 c2) d2 | c4 B4 | c6 c2 | e2 d2 c2 c2 | d2 c2 B2 B2 | c2 B2 A2 B2 | c6 A2 | d2 d2 B2 B2 | %16
w: here~ _ _ ac-|cepts our|praise. With|rev- erend awe and|God- ly fear, We|bow be- fore Thy|throne; For|Thou the fer- vent|
 A2 e2 c2 c2 | (A4 B2) cd | e4 d4 | c8 |] %20
w: prayer wilt hear, Through|Thy~ _ be- *|lo- ved|Son.|
V:3
 A,,4 | C,2 C,2 E,2 A,2 | F,2 E,2 D,2 C,2 | B,,2 A,,2 D,2 C,2 | B,,4 A,,4 | E,2 E,2 E,2 C,2 | %6
w: 3.~Peace|be with- in this|hal- lowed place, And|joy a con- stant|guest; With|ho- ly gifts and|
 B,,4 B,,4 | E,6 E,2 | (C,2 B,,2 A,,2) D,2 | E,4 E,4 | A,,6 A,2 | C2 B,2 A,2 A,2 | %12
w: heav'n- ly|grace Be|her~ _ _ at-|ten- dants|blest. Our|soul shall pray for|
 B,2 A,2 G,2 G,2 | A,2 G,2 F,2 E,2 | A,6 A,2 | E,2 E,2 E,2 E,2 | A,2 A,2 A,2 A,2 | %17
w: Zi- on still, While|life or breath re-|mains; For|here our friends and|breth- ren dwell, And|
 (D,2 C,2 B,,2) A,,2 | E,4 E,4 | A,,8 |] %20
w: here~ _ _ our|Sav- ior|reigns.|

